X:6
T:Lullaby of Birdland
R:misc
C:George Shearing (1919-2011), England/USA
H:Transposed from original Ab to fit the simple system flute
Z:id:hn-misc-6
M:4/4
L:1/8
Q:1/4=160
K:Bb
|: "Gm"d2 cB AG2=E- | "A7"=E2 G^F-"D7"^F2 zD- |
"Gm"D2 AG-G2 zE- | "Cm7"E2 dc-"F7"c2 zf- |
"Bbmaj7"f2 ed cB2G- | "Cm7"Gdc^F- ^Fdc=F- |
[1 "Bbmaj7"F4 zc BE- | "Db7#11"EBAD- "D7"D4 :|
[2 "Bbmaj7"F4 "F7"zF AB | "Bbmaj7"z8 ||
"G7"d2 e=e f2 f_e | "Cm7"zc3-c2 z2 |
"Cm7"c2 ^cd "F7"e2 ed- | "Bbmaj7"d4 z4 |
"G7"d2 e=e f2 f_e | "Cm7"zc3-c2 z2 |
"Cm7"c2 ^cd "F7"e2 ed- | "Bbmaj7"dedc "C7#5"z4 ||

